X: 31
T:A VOS SOUHAITS
M:2/4
L:1/8
Q:260
C:M.P.
R:scottish
K:C
ef ed|cd cB|c2e2|c4|c2e2|d4d2f2|e4|ef ed|cd cB|c2e2|c4|d2f2|d2B2|c2e2|c4
:|
|:d2d2|f3e|d2d2|g4|GA Bc|dc dB|c2e2|G4|d2d2|f3e|d2d2|g4|GA Bc|dc dB|c2e2
|c4:|
